src/img/clients/aquatoria.svg

<svg width="342" height="83" viewBox="0 0 342 83" fill="none" xmlns="http://www.w3.org/2000/svg">
<path d="M132.2 11.3C126.2 11.3 122.2 14.1 122.2 20V61.8C122.2 63.2 122.8 64.1 125.5 64.1C128 64.1 128.7 63.2001 128.7 61.7001V43.2001H135.7V61.8C135.7 63.2 136.4 64.1 139 64.1C141.7 64.1 142.3 63.2001 142.3 61.7001V20C142.3 14 138.3 11.3 132.2 11.3V11.3ZM128.7 38V20C128.7 17.8 130.3 16.6 132.2 16.6C134.2 16.6 135.7 17.8 135.7 20V38H128.7ZM166 38V28C166 26.5 165.4 25.5 163 25.5C160.4 25.5 159.8 26.5 159.8 27.9V38.1C159.8 40.4 158.4 41.4001 155.9 41.4001C154.5 41.4001 153.3 41.5001 152.1 41.9001V27.9C152.1 26.5 151.5 25.5 149.1 25.5C146.5 25.5 145.9 26.5 145.9 27.9V61.6C145.9 63 146.5 64.1 149 64.1C151.5 64.1 152.1 63.1 152.1 61.6V49.7001C152.1 47.4001 153.5 46.4001 155.9 46.4001C158.4 46.4001 159.8 47.4001 159.8 49.7001V61.7001C159.8 63.0001 160.4 64.1 162.9 64.1C165.4 64.1 165.9 63.1 165.9 61.6V49.7001C165.9 47.4001 165.1 45.3001 163.6 43.9001C164.375 43.1486 164.988 42.2462 165.401 41.2486C165.814 40.2511 166.017 39.1795 166 38.1V38ZM189.7 39V33.8C189.7 28.8 185.7 25.5 179.7 25.5C173.5 25.5 169.6 28.7 169.6 33.8V55.8C169.6 60.8 173.5 64.1 179.6 64.1C185.8 64.1 189.6 60.8 189.6 55.8V50.6C189.6 48.1 188.8 46.2 187.2 44.6C188.009 43.9128 188.653 43.053 189.086 42.0839C189.518 41.1148 189.728 40.061 189.7 39V39ZM175.8 39V33.8C175.8 31.5 177.2 30.5 179.6 30.5C182.1 30.5 183.5 31.5 183.5 33.8V39C183.5 41.3 182.1 42.2001 179.6 42.2001C177.2 42.2001 175.8 41.2 175.8 39ZM183.5 50.6V55.8C183.5 58.1 182.1 59 179.6 59C177.2 59 175.8 58 175.8 55.8V46.5C176.9 46.8 178.2 46.9001 179.6 46.9001C182.1 46.9001 183.5 48.3 183.5 50.6ZM203.3 25.5C198 25.5 193.3 28.0001 193.3 33.4001V35.9001C193.3 37.3001 193.9 38.3 196.3 38.3C199 38.3 199.5 37.7001 199.5 35.9001V33.4001C199.5 31.5001 201 30.5 203.3 30.5C205.8 30.5 207.2 31.5001 207.2 33.4001V41.8C206 41.4 204.6 41 203.3 41C197.3 41 193.3 44.4001 193.3 49.4001V55.8C193.3 60.8 197.2 64.1 203.3 64.1C209.5 64.1 213.3 60.8 213.3 55.8V33.2001C213.3 28.0001 209.5 25.5 203.3 25.5V25.5ZM207.2 55.8C207.2 58.1 205.8 59 203.3 59C200.9 59 199.5 58 199.5 55.8V49.4001C199.5 47.1001 200.9 46.1 203.3 46.1C205.8 46.1 207.2 47.1001 207.2 49.4001V55.8ZM235.4 26.3H218.6C217.6 26.3 217 26.8 217 28.6C217 30.6 217.7 31 218.6 31H223.9V61.6C223.9 63 224.5 64.1 227 64.1C229.5 64.1 230.2 63.1 230.2 61.6V31H235.4C236.4 31 237.1 30.5 237.1 28.6C237.1 26.8 236.4 26.3 235.4 26.3V26.3ZM250.7 25.5C244.6 25.5 240.7 28.7 240.7 33.8V55.8C240.7 60.8 244.6 64.1 250.7 64.1C256.9 64.1 260.7 60.8 260.7 55.8V33.8C260.7 28.8 256.9 25.5 250.7 25.5ZM250.7 59C248.3 59 246.9 58 246.9 55.8V33.8C246.9 31.5 248.3 30.5 250.7 30.5C253.1 30.5 254.6 31.5 254.6 33.8V55.8C254.6 58.1 253.1 59 250.7 59ZM274.4 25.5C268.3 25.5 264.4 28.7 264.4 33.8V76.4C264.4 77.8 265 78.8 267.5 78.8C270 78.8 270.5 77.8 270.5 76.4V63.5C271.7 63.8 273 64 274.5 64C280.5 64 284.5 60.7001 284.5 55.7001V33.8C284.5 28.8 280.5 25.5 274.5 25.5H274.4ZM274.4 59C272 59 270.6 58.0001 270.6 55.7001V33.8C270.6 31.5 272 30.5 274.4 30.5C276.8 30.5 278.2 31.5 278.2 33.8V55.7001C278.2 58.0001 276.8 59 274.4 59V59ZM306.7 26.3C301.7 26.3 297.4 28.5 297.4 34.3V55.4001C297.4 57.4001 296 58.2001 294.3 58.2001V27.9C294.3 26.5 293.6 25.5 291.2 25.5C288.7 25.5 288.1 26.5 288.1 27.9V63.2001H294.3C299.3 63.2001 303.6 61.2001 303.6 55.2001V34.2001C303.6 32.1001 305 31.4 306.6 31.4V61.6C306.6 63 307.4 64.1 309.8 64.1C312.2 64.1 312.9 63.1 312.9 61.6V26.3H306.7V26.3ZM326.6 25.5C320.5 25.5 316.6 28.7 316.6 33.8V40.6C316.6 43 317.7 45.0001 319.4 46.4001C318.537 47.1028 317.839 47.9866 317.355 48.9888C316.871 49.991 316.614 51.0872 316.6 52.2001V61.6C316.6 63 317.3 64.1 319.6 64.1C322.2 64.1 322.8 63.1 322.8 61.6V52.2001C322.8 49.9001 324.2 49 326.6 49C328 49 329.3 48.8 330.4 48.5V61.6C330.4 63 331.1 64.1 333.6 64.1C336.1 64.1 336.6 63.1 336.6 61.6V33.8C336.6 28.8 332.7 25.5 326.6 25.5ZM326.6 43.9001C324.2 43.9001 322.8 42.9 322.8 40.6V33.8C322.8 31.5 324.2 30.5 326.6 30.5C329 30.5 330.4 31.5 330.4 33.8V40.6C330.4 42.9 329 43.9001 326.6 43.9001Z" fill="#CAD5DD"/>
<path d="M57.8 78.2C79.3392 78.2 96.8 60.7391 96.8 39.2C96.8 17.6608 79.3392 0.199951 57.8 0.199951C36.2609 0.199951 18.8 17.6608 18.8 39.2C18.8 60.7391 36.2609 78.2 57.8 78.2Z" fill="#CAD5DD"/>
<path d="M42.8 62.7C47.3 72.2 57.8 74.1999 57.8 78.1999C36.3 78.1999 20.8 61.7 19.8 46.2C28.8 49.7 28.8 48.7 36.3 52.7C41.3 61.7 32.8 53.7 42.8 62.7Z" fill="#CAD5DD"/>
<path d="M84.8 48.2C87.0092 48.2 88.8 46.4091 88.8 44.2C88.8 41.9908 87.0092 40.2 84.8 40.2C82.5909 40.2 80.8 41.9908 80.8 44.2C80.8 46.4091 82.5909 48.2 84.8 48.2Z" fill="white"/>
<path d="M15.7 29.4C15.7 29.4 37.2 15.7 50 37C62.8 58.2 69.5 60.3 95 54" stroke="white" stroke-width="4"/>
<path d="M11.4 41.5001C11.4 41.5001 32.4 27.0001 45.9 47.8001C59.4 68.6001 66.2 70.4001 91.4 63.3001" stroke="white" stroke-width="4"/>
<path d="M3.40002 51.5001C3.40002 51.5001 24.4 37.0001 37.9 57.8001C51.4 78.6001 58.2 80.4001 83.4 73.3001" stroke="white" stroke-width="4"/>
</svg>

<svg width="342" height="83" fill="none" xmlns="http://www.w3.org/2000/svg"><path d="M132.2 11.3c-6 0-10 2.8-10 8.7v41.8c0 1.4.6 2.3 3.3 2.3 2.5 0 3.2-.9 3.2-2.4V43.2h7v18.6c0 1.4.7 2.3 3.3 2.3 2.7 0 3.3-.9 3.3-2.4V20c0-6-4-8.7-10.1-8.7ZM128.7 38V20c0-2.2 1.6-3.4 3.5-3.4 2 0 3.5 1.2 3.5 3.4v18h-7Zm37.3 0V28c0-1.5-.6-2.5-3-2.5-2.6 0-3.2 1-3.2 2.4v10.2c0 2.3-1.4 3.3-3.9 3.3-1.4 0-2.6.1-3.8.5v-14c0-1.4-.6-2.4-3-2.4-2.6 0-3.2 1-3.2 2.4v33.7c0 1.4.6 2.5 3.1 2.5s3.1-1 3.1-2.5V49.7c0-2.3 1.4-3.3 3.8-3.3 2.5 0 3.9 1 3.9 3.3v12c0 1.3.6 2.4 3.1 2.4s3-1 3-2.5V49.7c0-2.3-.8-4.4-2.3-5.8a7.9 7.9 0 0 0 2.4-5.8Zm23.7 1v-5.2c0-5-4-8.3-10-8.3-6.2 0-10.1 3.2-10.1 8.3v22c0 5 3.9 8.3 10 8.3 6.2 0 10-3.3 10-8.3v-5.2c0-2.5-.8-4.4-2.4-6a7.1 7.1 0 0 0 2.5-5.6Zm-13.9 0v-5.2c0-2.3 1.4-3.3 3.8-3.3 2.5 0 3.9 1 3.9 3.3V39c0 2.3-1.4 3.2-3.9 3.2-2.4 0-3.8-1-3.8-3.2Zm7.7 11.6v5.2c0 2.3-1.4 3.2-3.9 3.2-2.4 0-3.8-1-3.8-3.2v-9.3c1.1.3 2.4.4 3.8.4 2.5 0 3.9 1.4 3.9 3.7Zm19.8-25.1c-5.3 0-10 2.5-10 7.9v2.5c0 1.4.6 2.4 3 2.4 2.7 0 3.2-.6 3.2-2.4v-2.5c0-1.9 1.5-2.9 3.8-2.9 2.5 0 3.9 1 3.9 2.9v8.4c-1.2-.4-2.6-.8-3.9-.8-6 0-10 3.4-10 8.4v6.4c0 5 3.9 8.3 10 8.3 6.2 0 10-3.3 10-8.3V33.2c0-5.2-3.8-7.7-10-7.7Zm3.9 30.3c0 2.3-1.4 3.2-3.9 3.2-2.4 0-3.8-1-3.8-3.2v-6.4c0-2.3 1.4-3.3 3.8-3.3 2.5 0 3.9 1 3.9 3.3v6.4Zm28.2-29.5h-16.8c-1 0-1.6.5-1.6 2.3 0 2 .7 2.4 1.6 2.4h5.3v30.6c0 1.4.6 2.5 3.1 2.5s3.2-1 3.2-2.5V31h5.2c1 0 1.7-.5 1.7-2.4 0-1.8-.7-2.3-1.7-2.3Zm15.3-.8c-6.1 0-10 3.2-10 8.3v22c0 5 3.9 8.3 10 8.3 6.2 0 10-3.3 10-8.3v-22c0-5-3.8-8.3-10-8.3Zm0 33.5c-2.4 0-3.8-1-3.8-3.2v-22c0-2.3 1.4-3.3 3.8-3.3s3.9 1 3.9 3.3v22c0 2.3-1.5 3.2-3.9 3.2Zm23.7-33.5c-6.1 0-10 3.2-10 8.3v42.6c0 1.4.6 2.4 3.1 2.4s3-1 3-2.4V63.5c1.2.3 2.5.5 4 .5 6 0 10-3.3 10-8.3V33.8c0-5-4-8.3-10-8.3Zm0 33.5c-2.4 0-3.8-1-3.8-3.3V33.8c0-2.3 1.4-3.3 3.8-3.3s3.8 1 3.8 3.3v21.9c0 2.3-1.4 3.3-3.8 3.3Zm32.3-32.7c-5 0-9.3 2.2-9.3 8v21.1c0 2-1.4 2.8-3.1 2.8V27.9c0-1.4-.7-2.4-3.1-2.4-2.5 0-3.1 1-3.1 2.4v35.3h6.2c5 0 9.3-2 9.3-8v-21c0-2.1 1.4-2.8 3-2.8v30.2c0 1.4.8 2.5 3.2 2.5 2.4 0 3.1-1 3.1-2.5V26.3h-6.2Zm19.9-.8c-6.1 0-10 3.2-10 8.3v6.8c0 2.4 1.1 4.4 2.8 5.8a7.6 7.6 0 0 0-2.8 5.8v9.4c0 1.4.7 2.5 3 2.5 2.6 0 3.2-1 3.2-2.5v-9.4c0-2.3 1.4-3.2 3.8-3.2 1.4 0 2.7-.2 3.8-.5v13.1c0 1.4.7 2.5 3.2 2.5s3-1 3-2.5V33.8c0-5-3.9-8.3-10-8.3Zm0 18.4c-2.4 0-3.8-1-3.8-3.3v-6.8c0-2.3 1.4-3.3 3.8-3.3s3.8 1 3.8 3.3v6.8c0 2.3-1.4 3.3-3.8 3.3Z" fill="#146294"/><circle cx="57.8" cy="39.2" r="39" fill="url(#a)"/><path d="M42.8 62.7c4.5 9.5 15 11.5 15 15.5-21.5 0-37-16.5-38-32 9 3.5 9 2.5 16.5 6.5 5 9-3.5 1 6.5 10Z" fill="#F8971D"/><circle cx="84.8" cy="44.2" r="4" fill="#fff"/><path d="M15.7 29.4S37.2 15.7 50 37c12.8 21.2 19.5 23.3 45 17" stroke="#fff" stroke-width="4"/><path d="M11.4 41.5s21-14.5 34.5 6.3 20.3 22.6 45.5 15.5" stroke="#fff" stroke-width="4"/><path d="M3.4 51.5s21-14.5 34.5 6.3 20.3 22.6 45.5 15.5" stroke="#fff" stroke-width="4"/><defs><radialGradient id="a" cx="0" cy="0" r="1" gradientUnits="userSpaceOnUse" gradientTransform="matrix(-53.50063 74.99958 -71.98702 -51.35164 90.8 -3.3)"><stop stop-color="#fff"/><stop offset=".4" stop-color="#1777A0"/><stop offset="1" stop-color="#12638D"/></radialGradient></defs></svg>
